la/power-off-solid.svg

<svg xmlns="http://www.w3.org/2000/svg" viewBox="0 0 32 32" height="1em" width="1em">
  <path d="M 15 4 L 15 16 L 17 16 L 17 4 Z M 12 4.6875 C 7.347656 6.339844 4 10.785156 4 16 C 4 22.617188 9.382813 28 16 28 C 22.617188 28 28 22.617188 28 16 C 28 10.785156 24.652344 6.339844 20 4.6875 L 20 6.84375 C 23.527344 8.390625 26 11.910156 26 16 C 26 21.515625 21.515625 26 16 26 C 10.484375 26 6 21.515625 6 16 C 6 11.910156 8.472656 8.390625 12 6.84375 Z"/>
</svg>

<svg xmlns="http://www.w3.org/2000/svg" viewBox="0 0 32 32" height="1em" width="1em">
  <path d="M15 4v12h2V4Zm-3 .688C7.348 6.34 4 10.785 4 16c0 6.617 5.383 12 12 12s12-5.383 12-12c0-5.215-3.348-9.66-8-11.313v2.157C23.527 8.39 26 11.91 26 16c0 5.516-4.484 10-10 10S6 21.516 6 16c0-4.09 2.473-7.61 6-9.156Z"/>
</svg>
